flaticon/productivity/networking-3.svg

<svg xmlns="http://www.w3.org/2000/svg" width="32" height="32" viewBox="0 0 24 24">
    <path d="M14 7.160156C13.167969 5.707031 11.636719 4.800781 10.003906 4.800781 8.371094 4.800781 6.804688 5.6875 6.003906 7.160156 5.164062 8.710938 6.453125 10.074219 7.644531 10.074219L12.359375 10.074219C13.558594 10.074219 14.882812 8.703125 14 7.160156zM12.359375 9.054688L7.644531 9.054688C6.898438 9.054688 6.636719 8.125 6.890625 7.667969 7.53125 6.523438 8.734375 5.820312 10.003906 5.820312 11.289062 5.820312 12.40625 6.539062 13.113281 7.667969 13.421875 8.160156 13.167969 9.054688 12.359375 9.054688zM10.003906 4.332031C11.164062 4.332031 12.105469 3.359375 12.105469 2.167969 12.105469.972656 11.164062 0 10.003906 0 8.84375 0 7.898438.972656 7.898438 2.167969 7.898438 3.359375 8.84375 4.332031 10.003906 4.332031zM10.003906 1.019531C10.601562 1.019531 11.085938 1.535156 11.085938 2.167969 11.085938 2.796875 10.601562 3.3125 10.003906 3.3125 9.40625 3.3125 8.921875 2.796875 8.921875 2.167969 8.921875 1.535156 9.40625 1.019531 10.003906 1.019531zM24 21.277344L24 13.925781 13.769531 13.925781 13.769531 21.277344 17.234375 21.277344 16.921875 22.980469 15.839844 22.980469 15.839844 24 22.421875 24 22.421875 22.980469 21.339844 22.980469 21.03125 21.277344zM14.789062 14.945312L22.980469 14.945312 22.980469 20.257812 14.789062 20.257812zM20.304688 22.980469L17.960938 22.980469 18.269531 21.277344 19.992188 21.277344zM2.648438 21.523438L4.121094 21.523438 4.121094 22.546875 2.648438 22.546875zM2.648438 21.523438"/>
    <path d="M0 20.386719L0 24 6.769531 24 6.769531 13.925781 0 13.925781zM5.746094 22.980469L1.019531 22.980469 1.019531 21.089844 5.746094 21.089844zM1.019531 14.945312L5.746094 14.945312 5.746094 20.070312 1.019531 20.070312zM10.511719 10.988281L9.492188 10.988281 9.492188 13.992188 7.246094 16.324219 7.980469 17.035156 10.003906 14.933594 12.023438 17.035156 12.757812 16.324219 10.511719 13.992188zM10.511719 10.988281"/>
</svg>

<svg xmlns="http://www.w3.org/2000/svg" width="32" height="32" viewBox="0 0 24 24">
    <path d="M14 7.16c-.832-1.453-2.363-2.36-3.996-2.36s-3.2.888-4 2.36c-.84 1.55.45 2.914 1.64 2.914h4.715c1.2 0 2.524-1.37 1.641-2.914zm-1.64 1.895H7.644c-.747 0-1.008-.93-.754-1.387a3.592 3.592 0 0 1 3.113-1.848c1.285 0 2.402.72 3.11 1.848.308.492.054 1.387-.755 1.387zm0 0M10.004 4.332c1.16 0 2.101-.973 2.101-2.164C12.105.973 11.165 0 10.004 0c-1.16 0-2.106.973-2.106 2.168 0 1.191.946 2.164 2.106 2.164zm0-3.312c.598 0 1.082.515 1.082 1.148 0 .629-.484 1.144-1.082 1.144-.598 0-1.082-.515-1.082-1.144 0-.633.484-1.148 1.082-1.148zm0 0M24 21.277v-7.351H13.77v7.351h3.464l-.312 1.703H15.84V24h6.582v-1.02H21.34l-.309-1.703zm-9.21-6.332h8.19v5.313h-8.19zm5.515 8.035H17.96l.309-1.703h1.722zm0 0M2.648 21.523h1.473v1.024H2.648zm0 0"/>
    <path d="M0 20.387V24h6.77V13.926H0zm5.746 2.593H1.02v-1.89h4.726zM1.02 14.945h4.726v5.125H1.02zm0 0M10.512 10.988h-1.02v3.004l-2.246 2.332.734.711 2.024-2.101 2.02 2.101.734-.71-2.246-2.333zm0 0"/>
</svg>
